2017/images/schedule/check-in.svg

<?xml version="1.0" standalone="no"?>
<!-- Generator: Adobe Fireworks CS5, Export SVG Extension by Aaron Beall (http://fireworks.abeall.com) . Version: 0.6.1  -->
<!DOCTYPE svg PUBLIC "-//W3C//DTD SVG 1.1//EN" "http://www.w3.org/Graphics/SVG/1.1/DTD/svg11.dtd">
<svg id="Untitled-Page%201" viewBox="0 0 110 110" style="background-color:#ffffff00" version="1.1"
	xmlns="http://www.w3.org/2000/svg" xmlns:xlink="http://www.w3.org/1999/xlink" xml:space="preserve"
	x="0px" y="0px" width="110px" height="110px"
>
	<g id="Layer%201">
		<g>
			<path d="M 45.4434 32.575 L 55.0308 34.8203 L 56.2985 28.9661 L 61.1319 30.0088 L 59.7849 36.0234 L 70.4817 38.189 C 70.4817 38.189 71.7493 39.071 71.4324 40.8357 C 71.1155 42.5999 63.3505 77.4048 63.3505 77.4048 C 63.3505 77.4048 63.5881 78.3677 61.2112 78.1274 L 36.2521 72.5928 C 36.2521 72.5928 34.6674 72.5928 35.0635 69.9468 L 43.1456 34.0986 C 43.1456 34.0986 42.9078 31.9338 45.4434 32.575 Z" fill="#ffffff"/>
			<path d="M 75.4734 46.8462 C 73.8387 43.3745 70.3547 39.6565 63.4111 35.9502 L 63.4539 36.0215 C 61.6015 34.5769 57.6613 31.3147 59.1912 27.7659 C 59.1912 27.7659 60.3517 28.1499 61.25 28.8047 C 63.2309 30.2483 64.2426 32.3779 65.3676 33.9985 C 67.4278 36.9658 72.2715 37.3311 74.0146 41.5811 C 74.5316 42.8418 75.5279 44.7615 75.5543 46.2773 L 75.4734 46.8462 ZM 71.48 64.894 L 71.5798 64.7896 C 72.7512 61.2192 73.9457 58.7236 74.7603 56.8237 C 75.0928 56.0479 75.3914 54.3936 75.6541 53.5527 C 75.6541 53.5527 74.1587 62.0566 71.5798 64.7896 L 71.5454 64.894 L 71.48 64.894 ZM 69.4512 66.8896 L 69.5082 66.7202 C 68.4643 67.5811 67.4683 68.2573 66.6784 68.7437 C 62.6374 71.23 57.804 75.8013 56.6948 77.6455 C 55.5854 79.4902 54.6346 83.5005 60.0226 84.8638 C 65.4106 86.2266 68.1046 76.9243 68.1046 76.9243 C 68.5759 74.6743 69.5195 71.3247 70.5886 67.8892 L 70.894 67.3164 C 73.3205 65.1641 75.5343 61.9536 76.1865 58.3979 C 76.6077 56.1035 77.1155 53.6729 76.6002 50.5085 L 76.7797 48.604 C 77.0448 46.7739 77.0522 45.4016 76.8997 44.4441 C 76.5035 41.958 74.4434 38.189 72.304 36.9055 C 70.1647 35.6223 66.6784 33.6172 65.8068 32.0134 C 65.1566 30.8171 63.509 27.9236 61.6865 26.6404 C 59.8641 25.3569 57.6456 26.3994 57.6456 26.3994 L 57.7097 26.5073 C 57.249 26.8352 56.1144 27.9812 57.4079 30.7307 C 58.9926 34.0986 59.6264 36.585 67.233 39.9531 C 67.233 39.9531 72.2249 43.8826 73.8095 47.0908 C 75.0258 49.5532 74.9893 49.4976 75.0575 49.7971 C 75.0575 49.7971 74.847 51.873 74.7603 52.1426 C 74.0269 54.4272 71.2883 61.418 69.5082 66.7202 L 69.6164 66.6299 L 69.4512 66.8896 ZM 60.0146 83.1299 C 54.1554 80.5688 62.3205 73.585 66.4407 71.2593 C 67.1527 70.8564 66.7186 70.9399 67.4265 70.4575 C 67.4265 70.4575 66.1912 85.8306 60.0146 83.1299 Z" fill="#fcfcfc"/>
		</g>
	</g>
</svg>

<svg style="background-color:#ffffff00" xmlns="http://www.w3.org/2000/svg" width="110" height="110"><path d="M45.443 32.575l9.588 2.245 1.267-5.854 4.834 1.043-1.347 6.014 10.697 2.166s1.267.882.95 2.647c-.317 1.764-8.082 36.569-8.082 36.569s.238.963-2.139.722l-24.959-5.534s-1.585 0-1.189-2.646l8.083-35.848s-.238-2.165 2.297-1.524z" fill="#fff"/><path d="M75.473 46.846c-1.634-3.471-5.118-7.19-12.062-10.896l.043.072c-1.852-1.445-5.793-4.707-4.263-8.256 0 0 1.16.384 2.059 1.039 1.98 1.443 2.993 3.573 4.118 5.194 2.06 2.967 6.904 3.332 8.647 7.582.517 1.26 1.513 3.18 1.54 4.696l-.082.57zM71.48 64.894l.1-.104c1.171-3.57 2.366-6.066 3.18-7.966.333-.776.631-2.43.894-3.271 0 0-1.495 8.504-4.074 11.237l-.035.104h-.065zm-2.029 1.996l.057-.17a25.528 25.528 0 0 1-2.83 2.024c-4.04 2.486-8.874 7.057-9.983 8.901-1.11 1.845-2.06 5.856 3.328 7.219 5.388 1.363 8.082-7.94 8.082-7.94.47-2.25 1.414-5.6 2.484-9.035l.305-.573c2.426-2.152 4.64-5.362 5.292-8.918.422-2.295.93-4.725.414-7.89l.18-1.904c.265-1.83.272-3.202.12-4.16-.397-2.486-2.457-6.255-4.596-7.538-2.14-1.284-5.626-3.289-6.497-4.893-.65-1.196-2.298-4.09-4.12-5.373-1.823-1.283-4.041-.24-4.041-.24l.064.107c-.461.328-1.596 1.474-.302 4.224 1.585 3.368 2.218 5.854 9.825 9.222 0 0 4.992 3.93 6.576 7.138 1.217 2.462 1.18 2.407 1.249 2.706 0 0-.211 2.076-.298 2.346-.733 2.284-3.472 9.275-5.252 14.577l.108-.09-.165.26zm-9.436 16.24c-5.86-2.561 2.306-9.545 6.426-11.87.712-.404.278-.32.986-.803 0 0-1.236 15.374-7.412 12.673z" fill="#fcfcfc"/></svg>
